X:390
T: "Das Strassburger Maedchen"
N: Z1070
O: Europa, Mitteleuropa, Deutschland, Niederrhein
R: Romanze, Ballade
M: 6/8
L: 1/8
K: G
D | G2GA_Bc | d3A2
A | d2ddc_B | A2z3
d | =f_edcde | d3dc
A | _BAGcBA | G3z2

